TrafficJam2023/images/logo.svg

<svg width="109" height="28" viewBox="0 0 109 28" fill="none" xmlns="http://www.w3.org/2000/svg">
<path fill-rule="evenodd" clip-rule="evenodd" d="M23.0004 6.18649L12.6354 0.15327C12.2845 -0.0510901 11.8534 -0.0510901 11.504 0.15327L1.13892 6.18649L0.626321 6.48533C0.607435 6.49496 0.588746 6.50514 0.570281 6.51589L0.565747 6.51894C0.216315 6.7233 0 7.1 0 7.5072V20.234C0 20.6412 0.216315 21.0179 0.565747 21.2222L10.9323 27.257L11.4689 27.5679C11.48 27.5747 11.4912 27.5815 11.5025 27.588C11.8535 27.7924 12.2845 27.7908 12.6354 27.5865L13.2027 27.2555L18.6677 24.0745L22.2427 26.156C22.7102 26.4289 23.288 26.4289 23.7555 26.156L27.7082 23.8546C28.1755 23.5816 28.4645 23.0783 28.4645 22.5339V17.9327C28.4645 17.3868 28.177 16.8834 27.7082 16.612L24.135 14.5317V7.50573L24.1349 7.48897C24.129 7.0882 23.9139 6.719 23.5692 6.51744L23.0004 6.18649ZM21.8645 14.5309V9.49078C20.525 10.27 19.4424 11.3815 18.6954 12.6864C17.9481 13.9919 17.5351 15.491 17.5351 17.0512V12.0085L13.2028 14.5303V24.6126L17.5337 22.0924V17.9327C17.5337 17.3882 17.8227 16.885 18.29 16.612L21.8645 14.5309ZM21.8645 9.48835V9.49078L21.8555 9.49356L21.8645 9.48835ZM57.1925 22.2553C57.059 22.2553 56.9454 22.2083 56.8519 22.1143C56.7584 22.0202 56.7116 21.906 56.7116 21.7717V13.9319H55.0885C54.9549 13.9319 54.8414 13.8849 54.7479 13.7908C54.6544 13.6968 54.6076 13.5826 54.6076 13.4482V12.2592C54.6076 12.1248 54.6544 12.0106 54.7479 11.9165C54.8414 11.8225 54.9549 11.7755 55.0885 11.7755H56.7116V10.9693C56.7116 9.74669 57.0389 8.83975 57.6935 8.2486C58.348 7.64398 59.3366 7.34168 60.6591 7.34168H62.0417C62.1753 7.34168 62.2889 7.3887 62.3824 7.48276C62.4759 7.57681 62.5226 7.69101 62.5226 7.82536V9.01443C62.5226 9.14879 62.4759 9.26296 62.3824 9.35702C62.2889 9.45108 62.1753 9.49815 62.0417 9.49815H60.7593C60.2383 9.49815 59.8709 9.62576 59.6572 9.88105C59.4435 10.1364 59.3366 10.5327 59.3366 11.0701V11.7755H61.8414C61.9749 11.7755 62.0886 11.8225 62.182 11.9165C62.2755 12.0106 62.3223 12.1248 62.3223 12.2592V13.4482C62.3223 13.5826 62.2755 13.6968 62.182 13.7908C62.0886 13.8849 61.9749 13.9319 61.8414 13.9319H59.3366V21.7717C59.3366 21.906 59.2899 22.0202 59.1963 22.1143C59.1162 22.2083 59.0026 22.2553 58.8557 22.2553H57.1925ZM45.3624 22.0538C45.9368 22.3225 46.5647 22.4568 47.246 22.4568C48.0475 22.4568 48.7155 22.3225 49.2498 22.0538C49.7841 21.7717 50.1982 21.4156 50.4921 20.9857V21.7717C50.4921 21.906 50.5389 22.0202 50.6324 22.1143C50.726 22.2083 50.8395 22.2553 50.9731 22.2553H52.6362C52.7832 22.2553 52.8967 22.2083 52.9768 22.1143C53.0704 22.0202 53.1171 21.906 53.1171 21.7717V15.4435C53.1171 14.288 52.7564 13.3542 52.0351 12.6421C51.3137 11.9299 50.1649 11.5739 48.5885 11.5739C47.6267 11.5739 46.8185 11.7352 46.1639 12.0576C45.5094 12.3666 45.0218 12.7362 44.7011 13.166C44.3939 13.5826 44.2336 13.9588 44.2202 14.2946C44.2202 14.429 44.2603 14.5365 44.3404 14.6171C44.434 14.6978 44.5409 14.7381 44.6611 14.7381H46.224C46.371 14.7381 46.4712 14.6574 46.5246 14.4962L46.8452 14.1737C47.0189 13.999 47.2393 13.8311 47.5065 13.6699C47.7736 13.5086 48.1277 13.428 48.5685 13.428C49.2097 13.428 49.6773 13.5758 49.9712 13.8714C50.265 14.167 50.412 14.6037 50.412 15.1814V15.6047L47.6668 16.0077C46.3843 16.2093 45.3758 16.5922 44.641 17.1565C43.9063 17.7208 43.5389 18.4597 43.5389 19.3734C43.5389 19.9377 43.6993 20.4549 44.0198 20.9252C44.3538 21.3954 44.8014 21.7717 45.3624 22.0538ZM49.7307 19.7966C49.2632 20.2803 48.662 20.5221 47.9273 20.5221C47.433 20.5221 47.0055 20.408 46.6448 20.1795C46.2975 19.9377 46.1239 19.6017 46.1239 19.1719C46.1239 18.3791 46.892 17.8618 48.4283 17.62L50.432 17.2976V17.7007C50.432 18.6143 50.1982 19.3129 49.7307 19.7966ZM36.1222 22.1143C36.2157 22.2083 36.3292 22.2553 36.4628 22.2553H38.2462C38.3798 22.2553 38.4933 22.2083 38.5869 22.1143C38.6804 22.0202 38.7271 21.906 38.7271 21.7717V16.2496C38.7271 15.618 38.9074 15.121 39.2682 14.7582C39.6289 14.3955 40.1231 14.214 40.751 14.214H42.334C42.4809 14.214 42.5945 14.167 42.6746 14.073C42.7682 13.9789 42.8149 13.8648 42.8149 13.7304V12.2592C42.8149 12.1114 42.7682 11.9971 42.6746 11.9165C42.5945 11.8225 42.4809 11.7755 42.334 11.7755H41.4924C40.2367 11.7755 39.2748 12.2189 38.6069 13.1056V12.2793C38.6069 12.1315 38.5601 12.0106 38.4667 11.9165C38.3731 11.8225 38.2529 11.7755 38.106 11.7755H36.4628C36.3292 11.7755 36.2157 11.8225 36.1222 11.9165C36.0287 12.0106 35.9819 12.1315 35.9819 12.2793V21.7717C35.9819 21.906 36.0287 22.0202 36.1222 22.1143ZM63.9662 9.92136C64.0597 10.0154 64.1732 10.0624 64.3068 10.0624H66.1504C66.2839 10.0624 66.3975 10.0154 66.491 9.92136C66.5978 9.82731 66.6513 9.71305 66.6513 9.57877V8.10752C66.6513 7.95972 66.6045 7.8388 66.5111 7.74475C66.4175 7.6507 66.2973 7.60368 66.1504 7.60368H64.3068C64.1732 7.60368 64.0597 7.6507 63.9662 7.74475C63.8727 7.8388 63.8259 7.95972 63.8259 8.10752V9.57877C63.8259 9.71305 63.8727 9.82731 63.9662 9.92136ZM64.0463 22.1143C64.1399 22.2083 64.2534 22.2553 64.387 22.2553H66.0903C66.2238 22.2553 66.3373 22.2083 66.4309 22.1143C66.5244 22.0202 66.5712 21.906 66.5712 21.7717V12.2592C66.5712 12.1248 66.5244 12.0106 66.4309 11.9165C66.3373 11.8225 66.2238 11.7755 66.0903 11.7755H64.387C64.2534 11.7755 64.1399 11.8225 64.0463 11.9165C63.9528 11.9971 63.9061 12.1114 63.9061 12.2592V21.7717C63.9061 21.906 63.9528 22.0202 64.0463 22.1143ZM69.6901 22.2553C69.5565 22.2553 69.4429 22.2083 69.3494 22.1143C69.2559 22.0202 69.2092 21.906 69.2092 21.7717V12.2592C69.2092 12.1114 69.2559 11.9971 69.3494 11.9165C69.4429 11.8225 69.5565 11.7755 69.6901 11.7755H71.3532C71.5002 11.7755 71.6137 11.8225 71.6939 11.9165C71.7874 11.9971 71.8341 12.1114 71.8341 12.2592V13.0854C72.649 12.0778 73.7644 11.5739 75.1805 11.5739C76.4095 11.5739 77.3847 11.977 78.1061 12.7831C78.8274 13.5893 79.1881 14.6978 79.1881 16.1085V21.7717C79.1881 21.906 79.1413 22.0202 79.0478 22.1143C78.9676 22.2083 78.8541 22.2553 78.7072 22.2553H76.9038C76.7702 22.2553 76.6566 22.2083 76.5631 22.1143C76.4696 22.0202 76.4228 21.906 76.4228 21.7717V16.2294C76.4228 15.4501 76.2292 14.8456 75.8417 14.4156C75.4677 13.9722 74.9266 13.7505 74.2187 13.7505C73.5373 13.7505 72.9896 13.9722 72.5755 14.4156C72.1614 14.859 71.9543 15.4636 71.9543 16.2294V21.7717C71.9543 21.906 71.9076 22.0202 71.8141 22.1143C71.7339 22.2083 71.6204 22.2553 71.4734 22.2553H69.6901ZM82.8751 22.0538C83.4495 22.3225 84.0774 22.4568 84.7588 22.4568C85.5606 22.4568 86.2278 22.3225 86.7629 22.0538C87.2971 21.7717 87.7111 21.4156 88.0049 20.9857V21.7717C88.0049 21.906 88.0515 22.0202 88.1455 22.1143C88.2386 22.2083 88.3521 22.2553 88.4858 22.2553H90.1487C90.296 22.2553 90.4095 22.2083 90.4899 22.1143C90.583 22.0202 90.6296 21.906 90.6296 21.7717V15.4435C90.6296 14.288 90.2689 13.3542 89.5476 12.6421C88.8262 11.9299 87.6773 11.5739 86.1016 11.5739C85.1398 11.5739 84.3312 11.7352 83.6767 12.0576C83.022 12.3666 82.5344 12.7362 82.2139 13.166C81.9066 13.5826 81.7463 13.9588 81.733 14.2946C81.733 14.429 81.773 14.5365 81.8532 14.6171C81.9467 14.6978 82.0535 14.7381 82.1737 14.7381H83.7368C83.8837 14.7381 83.9838 14.6574 84.0373 14.4962L84.3579 14.1737C84.5315 13.999 84.752 13.8311 85.0196 13.6699C85.2863 13.5086 85.6402 13.428 86.0813 13.428C86.7222 13.428 87.1896 13.5758 87.4842 13.8714C87.778 14.167 87.9245 14.6037 87.9245 15.1814V15.6047L85.1796 16.0077C83.8971 16.2093 82.8885 16.5922 82.1538 17.1565C81.419 17.7208 81.0516 18.4597 81.0516 19.3734C81.0516 19.9377 81.2119 20.4549 81.5326 20.9252C81.8665 21.3954 82.314 21.7717 82.8751 22.0538ZM87.2438 19.7966C86.7756 20.2803 86.1744 20.5221 85.4404 20.5221C84.9459 20.5221 84.5182 20.408 84.1576 20.1795C83.8102 19.9377 83.6365 19.6017 83.6365 19.1719C83.6365 18.3791 84.4046 17.8618 85.9408 17.62L87.9448 17.2976V17.7007C87.9448 18.6143 87.7111 19.3129 87.2438 19.7966ZM97.0677 22.4568C95.7181 22.4568 94.6826 22.027 93.9613 21.167C93.2399 20.2937 92.8462 19.1315 92.7793 17.6805L92.759 17.0154L92.7793 16.3503C92.8327 14.9262 93.2204 13.7774 93.9418 12.9041C94.6759 12.0173 95.7181 11.5739 97.0677 11.5739C98.3496 11.5739 99.3715 12.0173 100.134 12.9041V8.42997C100.134 8.28218 100.18 8.16798 100.273 8.08736C100.367 7.99332 100.481 7.94629 100.614 7.94629H102.358C102.504 7.94629 102.618 7.99332 102.698 8.08736C102.791 8.16798 102.839 8.28218 102.839 8.42997V21.7717C102.839 21.906 102.791 22.0202 102.698 22.1143C102.618 22.2083 102.504 22.2553 102.358 22.2553H100.735C100.601 22.2553 100.487 22.2083 100.393 22.1143C100.3 22.0202 100.254 21.906 100.254 21.7717V21.026C99.5188 21.9799 98.4571 22.4568 97.0677 22.4568ZM97.8289 20.2803C98.59 20.2803 99.1514 20.0384 99.5121 19.5548C99.8863 19.0576 100.093 18.4463 100.134 17.7208C100.146 17.5595 100.153 17.3042 100.153 16.955C100.153 16.5922 100.146 16.3302 100.134 16.169C100.106 15.4972 99.8998 14.9262 99.5121 14.4559C99.1243 13.9856 98.5638 13.7505 97.8289 13.7505C96.3997 13.7505 95.6377 14.6372 95.5445 16.4108L95.5242 17.0154L95.5445 17.62C95.6377 19.3935 96.3997 20.2803 97.8289 20.2803ZM105.529 22.1143C105.622 22.2083 105.736 22.2553 105.869 22.2553H107.893C108.04 22.2553 108.153 22.2083 108.234 22.1143C108.328 22.0202 108.374 21.906 108.374 21.7717V19.7361C108.374 19.6017 108.328 19.4876 108.234 19.3935C108.14 19.2995 108.027 19.2525 107.893 19.2525H105.869C105.736 19.2525 105.622 19.2995 105.529 19.3935C105.435 19.4876 105.388 19.6017 105.388 19.7361V21.7717C105.388 21.906 105.435 22.0202 105.529 22.1143Z" fill="#FDFDFD"/>
</svg>

<svg xmlns="http://www.w3.org/2000/svg" width="109" height="28" fill="none" viewBox="0 0 109 28"><path fill="#FDFDFD" fill-rule="evenodd" d="M23 6.186 12.635.153a1.12 1.12 0 0 0-1.131 0L1.139 6.186l-.513.3c-.019.009-.037.02-.056.03l-.004.003C.216 6.723 0 7.1 0 7.507v12.727c0 .407.216.784.566.988l10.366 6.035.537.31c.011.008.022.014.034.021.35.204.781.203 1.132-.002l.568-.33 5.465-3.181 3.575 2.081a1.5 1.5 0 0 0 1.513 0l3.952-2.301a1.53 1.53 0 0 0 .757-1.321v-4.601c0-.546-.288-1.05-.757-1.321l-3.573-2.08V7.489c-.006-.4-.221-.77-.566-.972L23 6.187Zm-1.136 8.345V9.49a8.685 8.685 0 0 0-3.169 3.195 8.78 8.78 0 0 0-1.16 4.365v-5.04l-4.332 2.521v10.083l4.33-2.52v-4.16c0-.545.29-1.048.757-1.321l3.575-2.081Zm0-5.043v.003l-.009.003.01-.006Zm35.329 12.767a.463.463 0 0 1-.341-.14.468.468 0 0 1-.14-.343v-7.84h-1.623a.462.462 0 0 1-.341-.141.468.468 0 0 1-.14-.343V12.26c0-.134.046-.248.14-.343a.462.462 0 0 1 .34-.14h1.624v-.807c0-1.222.327-2.13.981-2.72.655-.605 1.644-.907 2.966-.907h1.383c.133 0 .247.047.34.14.094.095.14.209.14.343v1.19a.468.468 0 0 1-.14.342.463.463 0 0 1-.34.141h-1.283c-.52 0-.888.128-1.102.383-.213.255-.32.652-.32 1.19v.704h2.504c.134 0 .248.047.341.141.093.095.14.209.14.343v1.19a.468.468 0 0 1-.14.342.462.462 0 0 1-.34.14h-2.505v7.84a.468.468 0 0 1-.14.343.423.423 0 0 1-.341.141h-1.663Zm-11.83-.201a4.39 4.39 0 0 0 1.883.403c.801 0 1.47-.134 2.004-.403.534-.282.948-.638 1.242-1.068v.786c0 .134.047.248.14.342a.463.463 0 0 0 .341.141h1.663c.147 0 .26-.047.34-.14a.468.468 0 0 0 .141-.343v-6.328c0-1.156-.36-2.09-1.082-2.802-.721-.712-1.87-1.068-3.446-1.068-.962 0-1.77.161-2.425.484-.655.309-1.142.678-1.463 1.108-.307.417-.467.793-.48 1.129 0 .134.04.242.12.322.093.08.2.121.32.121h1.563c.147 0 .247-.08.3-.242l.321-.322a3.39 3.39 0 0 1 .662-.504c.267-.161.62-.242 1.062-.242.64 0 1.108.148 1.402.443.294.296.441.733.441 1.31v.424l-2.745.403c-1.283.201-2.291.584-3.026 1.149-.735.564-1.102 1.303-1.102 2.216 0 .565.16 1.082.48 1.552.335.47.782.847 1.343 1.129Zm4.368-2.257c-.468.483-1.069.725-1.804.725-.494 0-.922-.114-1.282-.342a1.16 1.16 0 0 1-.521-1.008c0-.793.768-1.31 2.304-1.552l2.004-.322v.403c0 .913-.234 1.612-.701 2.096Zm-13.609 2.317a.462.462 0 0 0 .34.141h1.784a.463.463 0 0 0 .34-.14.468.468 0 0 0 .141-.343V16.25c0-.632.18-1.129.541-1.492.36-.362.855-.544 1.483-.544h1.583c.147 0 .26-.047.34-.141a.467.467 0 0 0 .14-.343v-1.47a.428.428 0 0 0-.14-.344.423.423 0 0 0-.34-.14h-.842c-1.255 0-2.217.443-2.885 1.33v-.827a.493.493 0 0 0-.14-.363.487.487 0 0 0-.361-.14h-1.643a.462.462 0 0 0-.34.14.493.493 0 0 0-.141.363v9.493c0 .134.047.248.14.342ZM63.966 9.921a.462.462 0 0 0 .34.141h1.844a.462.462 0 0 0 .341-.14.44.44 0 0 0 .16-.343V8.108a.493.493 0 0 0-.14-.363.487.487 0 0 0-.36-.141h-1.844a.462.462 0 0 0-.34.14.493.493 0 0 0-.141.364v1.47c0 .135.047.25.14.343Zm.08 12.193a.463.463 0 0 0 .341.141h1.703a.463.463 0 0 0 .34-.14.468.468 0 0 0 .141-.343v-9.513a.468.468 0 0 0-.14-.343.463.463 0 0 0-.34-.14h-1.704a.463.463 0 0 0-.34.14.428.428 0 0 0-.14.343v9.513c0 .134.046.248.14.342Zm5.644.141a.463.463 0 0 1-.34-.14.468.468 0 0 1-.14-.343v-9.513c0-.148.046-.262.14-.343a.463.463 0 0 1 .34-.14h1.663c.147 0 .26.046.34.14a.428.428 0 0 1 .141.343v.826c.815-1.007 1.93-1.511 3.346-1.511 1.23 0 2.205.403 2.926 1.21.721.805 1.082 1.914 1.082 3.324v5.664a.468.468 0 0 1-.14.342.423.423 0 0 1-.34.141h-1.804a.463.463 0 0 1-.34-.14.468.468 0 0 1-.141-.343v-5.543c0-.779-.194-1.383-.581-1.813-.374-.444-.915-.665-1.623-.665-.682 0-1.23.221-1.643.665-.415.443-.622 1.048-.622 1.813v5.543a.468.468 0 0 1-.14.342.423.423 0 0 1-.34.141H69.69Zm13.185-.201a4.39 4.39 0 0 0 1.884.403c.802 0 1.469-.134 2.004-.403.534-.282.948-.638 1.242-1.068v.786c0 .134.047.248.14.342a.461.461 0 0 0 .34.141h1.664c.147 0 .26-.047.34-.14a.47.47 0 0 0 .14-.343v-6.328c0-1.156-.36-2.09-1.081-2.802-.722-.712-1.87-1.068-3.446-1.068-.962 0-1.77.161-2.425.484-.655.309-1.143.678-1.463 1.108-.307.417-.468.793-.481 1.129 0 .134.04.242.12.322.094.08.2.121.32.121h1.564c.147 0 .247-.08.3-.242l.32-.322a3.4 3.4 0 0 1 .663-.504c.266-.161.62-.242 1.061-.242.641 0 1.109.148 1.403.443.294.296.44.733.44 1.31v.424l-2.744.403c-1.283.201-2.292.584-3.026 1.149-.735.564-1.102 1.303-1.102 2.216 0 .565.16 1.082.48 1.552.335.47.782.847 1.343 1.129Zm4.369-2.257c-.468.483-1.07.725-1.804.725-.494 0-.922-.114-1.282-.342a1.16 1.16 0 0 1-.522-1.008c0-.793.769-1.31 2.305-1.552l2.004-.322v.403c0 .913-.234 1.612-.701 2.096Zm9.824 2.66c-1.35 0-2.385-.43-3.107-1.29-.721-.873-1.115-2.036-1.182-3.487l-.02-.665.02-.665c.054-1.424.441-2.573 1.163-3.446.734-.887 1.776-1.33 3.126-1.33 1.282 0 2.303.443 3.066 1.33V8.43a.43.43 0 0 1 .139-.343.465.465 0 0 1 .341-.14h1.744c.146 0 .26.046.34.14a.43.43 0 0 1 .141.343v13.342a.47.47 0 0 1-.141.342.423.423 0 0 1-.34.141h-1.623a.466.466 0 0 1-.342-.14.469.469 0 0 1-.139-.343v-.746c-.735.954-1.797 1.43-3.186 1.43Zm.76-2.177c.762 0 1.323-.242 1.684-.725.374-.497.581-1.109.622-1.834.012-.162.019-.417.019-.766 0-.363-.007-.625-.019-.786-.028-.672-.234-1.243-.622-1.713s-.948-.705-1.683-.705c-1.43 0-2.191.886-2.284 2.66l-.02.604.02.605c.093 1.773.855 2.66 2.284 2.66Zm7.701 1.834a.461.461 0 0 0 .34.141h2.024c.147 0 .26-.047.341-.14a.466.466 0 0 0 .14-.343v-2.036a.466.466 0 0 0-.14-.343.463.463 0 0 0-.341-.14h-2.024a.461.461 0 0 0-.34.14.467.467 0 0 0-.141.343v2.036c0 .134.047.248.141.342Z" clip-rule="evenodd"/></svg>
